src/assets/svg/icons/fa/nuevos/classic/light/sheep classic light.svg

<svg xmlns="http://www.w3.org/2000/svg" viewBox="0 0 640 512"><!--! Font Awesome Pro 6.4.0 by @fontawesome - https://fontawesome.com License - https://fontawesome.com/license (Commercial License) Copyright 2023 Fonticons, Inc. --><path d="M544 136c0-39.8-32.2-72-72-72c-36.1 0-66 26.6-71.2 61.2l.1 .1-.1 .1c-.5 3.5-.8 7-.8 10.6v72c0 35.3 28.7 64 64 64h16c35.3 0 64-28.7 64-64V136zM372.5 105.8C385.4 63.1 425.1 32 472 32c44.4 0 82.2 27.8 97.2 66.9l47.7 31.8c7.4 4.9 9.3 14.8 4.4 22.2s-14.8 9.3-22.2 4.4L576 141.9V208c0 53-43 96-96 96H464c-53 0-96-43-96-96V147.2l-15.1 10.1c-7.4 4.9-17.3 2.9-22.2-4.4s-2.9-17.3 4.4-22.2l37.3-24.9zM448 144a16 16 0 1 1 0 32 16 16 0 1 1 0-32zm48 16a16 16 0 1 1 32 0 16 16 0 1 1 -32 0zM416 344c9.9 0 18.8-4.5 24.7-11.6c10.1 2.4 20.5 3.6 31.3 3.6c1.1 0 2.2 0 3.4 0c-8.7 21.5-28.8 37.3-52.8 39.7l-25 100C392.2 497 373 512 351 512H336c-26.5 0-48-21.5-48-48V423.4c-9.4 5.4-20.3 8.6-32 8.6s-22.6-3.1-32-8.6V464c0 26.5-21.5 48-48 48H161c-22 0-41.2-15-46.6-36.4l-25-100C57.2 372.4 32 345.1 32 312c0-5.3 .7-10.5 1.9-15.5C13.7 285.7 0 264.5 0 240s13.7-45.7 33.9-56.5c-1.2-5-1.9-10.2-1.9-15.5c0-35.3 28.7-64 64-64c3.3 0 6.6 .3 9.8 .8C112.7 76.8 137.9 56 168 56c15 0 28.9 5.2 39.8 13.9C219.5 56.5 236.8 48 256 48s36.5 8.5 48.2 21.9C315.1 61.2 329 56 344 56c5.7 0 11.2 .7 16.5 2.1c-6.4 9.2-11.7 19.2-15.8 29.9l-.7 0c-7.6 0-14.4 2.6-19.9 6.9c-13.4 10.6-32.8 8.9-44-4c-5.9-6.8-14.5-11-24.1-11s-18.2 4.2-24.1 11c-11.3 12.9-30.6 14.6-44 4C182.4 90.6 175.6 88 168 88c-15 0-27.7 10.4-31.1 24.3c-3.9 16.1-19.6 26.6-36 24c-1.6-.2-3.2-.4-5-.4c-17.7 0-32 14.3-32 32c0 2.7 .3 5.3 .9 7.8c3.5 14.2-3 29-16 36c-10.2 5.4-17 16.1-17 28.3s6.8 22.8 17 28.3c12.9 6.9 19.5 21.7 16 36c-.6 2.5-.9 5.1-.9 7.8c0 17.7 14.3 32 32 32c1.7 0 3.4-.1 5-.4c16.4-2.5 32 7.9 36 24c3.4 14 16.1 24.3 31.1 24.3c7.6 0 14.4-2.6 19.9-6.9c13.4-10.6 32.8-8.9 44 4c5.9 6.8 14.5 11 24.1 11s18.2-4.2 24.1-11c11.3-12.9 30.6-14.6 44-4c5.5 4.3 12.3 6.9 19.9 6.9c15 0 27.7-10.4 31.1-24.3c3.9-16.1 19.6-26.6 36-24c1.6 .2 3.2 .4 5 .4zm-72 80c-8.5 0-16.6-1.7-24-4.7V464c0 8.8 7.2 16 16 16h15c7.3 0 13.7-5 15.5-12.1l13.8-55.2C370 419.8 357.5 424 344 424zM131.7 412.7l13.8 55.2c1.8 7.1 8.2 12.1 15.5 12.1h15c8.8 0 16-7.2 16-16V419.3c-7.4 3-15.5 4.7-24 4.7c-13.5 0-26-4.2-36.3-11.3z"/></svg>

<svg xmlns="http://www.w3.org/2000/svg" viewBox="0 0 640 512"><path d="M432 160C432 151.2 439.2 144 448 144C456.8 144 464 151.2 464 160C464 168.8 456.8 176 448 176C439.2 176 432 168.8 432 160zM528 160C528 168.8 520.8 176 512 176C503.2 176 496 168.8 496 160C496 151.2 503.2 144 512 144C520.8 144 528 151.2 528 160zM372.5 105.8C385.4 63.09 425.1 32 472 32C516.4 32 554.2 59.78 569.2 98.89L616.9 130.7C624.2 135.6 626.2 145.5 621.3 152.9C616.4 160.2 606.5 162.2 599.1 157.3L576 141.9V208C576 261 533 304 480 304H464C410.1 304 368 261 368 208V147.2L352.9 157.3C345.5 162.2 335.6 160.2 330.7 152.9C325.8 145.5 327.8 135.6 335.1 130.7L372.5 105.8zM472 64C435.9 64 406 90.56 400.8 125.2L400.9 125.3L400.8 125.4C400.3 128.8 400 132.4 400 136V208C400 243.3 428.7 272 464 272H480C515.3 272 544 243.3 544 208V136C544 96.24 511.8 64 472 64zM416 344C425.9 344 434.8 339.5 440.7 332.4C450.7 334.7 461.2 336 472 336C473.1 336 474.2 335.1 475.4 335.1C466.7 357.5 446.6 373.2 422.6 375.7L397.6 475.6C392.2 497 373 512 351 512H336C309.5 512 287.1 490.5 287.1 464V423.4C278.6 428.9 267.7 432 255.1 432C244.3 432 233.4 428.9 223.1 423.4V464C223.1 490.5 202.5 512 175.1 512H160.1C138.1 512 119.8 497 114.4 475.6L89.42 375.7C57.17 372.4 32 345.1 32 312C32 306.7 32.66 301.5 33.89 296.5C13.72 285.7 0 264.5 0 240C0 215.5 13.72 194.3 33.89 183.5C32.66 178.5 32 173.3 32 168C32 132.7 60.65 104 96 104C99.34 104 102.6 104.3 105.8 104.8C112.7 76.77 137.9 56 168 56C183 56 196.9 61.19 207.8 69.88C219.5 56.47 236.8 48 256 48C275.2 48 292.5 56.47 304.2 69.88C315.1 61.19 328.1 56 344 56C349.7 56 355.2 56.74 360.5 58.14C354.1 67.33 348.7 77.35 344.7 88.01L344 88C336.4 88 329.6 90.58 324.1 94.93C310.7 105.6 291.4 103.8 280.1 90.95C274.2 84.19 265.6 80 255.1 80C246.4 80 237.8 84.19 231.9 90.95C220.6 103.8 201.3 105.6 187.9 94.93C182.4 90.58 175.6 88 167.1 88C152.1 88 140.3 98.35 136.9 112.3C132.1 128.5 117.4 138.9 100.1 136.4C99.36 136.1 97.7 136 95.1 136C78.33 136 63.1 150.3 63.1 168C63.1 170.7 64.33 173.3 64.94 175.8C68.49 190 61.9 204.8 48.97 211.7C38.8 217.2 31.1 227.8 31.1 240C31.1 252.2 38.8 262.8 48.97 268.3C61.9 275.2 68.49 289.1 64.94 304.2C64.33 306.7 63.1 309.3 63.1 312C63.1 329.7 78.33 344 95.1 344C97.7 344 99.36 343.9 100.1 343.6C117.4 341.1 132.1 351.5 136.9 367.7C140.3 381.6 152.1 392 167.1 392C175.6 392 182.4 389.4 187.9 385.1C201.3 374.4 220.6 376.2 231.9 389C237.8 395.8 246.4 400 256 400C265.6 400 274.2 395.8 280.1 389C291.4 376.2 310.7 374.4 324.1 385.1C329.6 389.4 336.4 392 344 392C359 392 371.7 381.6 375.1 367.7C379 351.5 394.6 341.1 411 343.6C412.6 343.9 414.3 344 416 344H416zM319.1 419.3V464C319.1 472.8 327.2 480 336 480H351C358.4 480 364.8 475 366.5 467.9L380.3 412.7C370 419.8 357.5 424 344 424C335.5 424 327.4 422.3 319.1 419.3H319.1zM131.7 412.7L145.5 467.9C147.2 475 153.6 480 160.1 480H175.1C184.8 480 191.1 472.8 191.1 464V419.3C184.6 422.3 176.5 424 167.1 424C154.5 424 141.1 419.8 131.7 412.7H131.7z"/></svg>
